src/epub/images/titlepage.svg

<?xml version="1.0" encoding="utf-8"?>
<svg xmlns="http://www.w3.org/2000/svg" xmlns:svg="http://www.w3.org/2000/svg" version="1.1" viewBox="0 0 1400 440">
	<title>The titlepage for the Standard Ebooks edition of The Pit-Prop Syndicate, by Freeman Wills Crofts</title>
	<g>
		<path d="m 341.10306,68.245613 18.33919,0 0,61.754387 17.59064,0 0,-61.754387 18.33918,0 0,-15.438597 -54.26901,0 0,15.438597 z"/>
		<path d="m 424.29751,99.029239 24.88889,0 0,30.970761 17.59064,0 0,-77.192984 -17.59064,0 0,30.783626 -24.88889,0 0,-30.783626 -17.59064,0 0,77.192984 17.59064,0 0,-30.970761 z"/>
		<path d="m 527.14254,52.807016 -44.16374,0 0,77.192984 44.16374,0 0,-15.4386 -26.5731,0 0,-15.532161 25.4503,0 0,-15.438597 -25.4503,0 0,-15.345029 26.5731,0 0,-15.438597 z"/>
		<path d="m 572.83991,52.807016 0,77.192984 17.59065,0 0,-28.63158 10.5731,0 c 15.06433,0 26.38596,-8.888888 26.38596,-24.795322 0,-16 -11.32163,-23.766082 -26.38596,-23.766082 l -28.16375,0 z m 17.59065,34.526317 0,-20.491229 4.95906,0 c 6.92398,0 13.47369,2.339181 13.47369,10.292398 0,7.859649 -6.54971,10.198831 -13.47369,10.198831 l -4.95906,0 z"/>
		<path d="m 657.7478,52.807016 -17.59064,0 0,77.192984 17.59064,0 0,-77.192984 z"/>
		<path d="m 664.59724,68.245613 18.33918,0 0,61.754387 17.59064,0 0,-61.754387 18.33918,0 0,-15.438597 -54.269,0 0,15.438597 z"/>
		<path d="m 730.20101,95.754385 0,14.315795 30.12866,0 0,-14.315795 -30.12866,0 z"/>
		<path d="m 776.50219,52.807016 0,77.192984 17.59065,0 0,-28.63158 10.5731,0 c 15.06432,0 26.38596,-8.888888 26.38596,-24.795322 0,-16 -11.32164,-23.766082 -26.38596,-23.766082 l -28.16375,0 z m 17.59065,34.526317 0,-20.491229 4.95906,0 c 6.92398,0 13.47368,2.339181 13.47368,10.292398 0,7.859649 -6.5497,10.198831 -13.47368,10.198831 l -4.95906,0 z"/>
		<path d="m 843.81945,52.807016 0,77.192984 17.59065,0 0,-30.502925 L 884.98904,130 l 22.36258,0 -26.5731,-31.906433 c 9.45029,-2.994152 15.81286,-10.760234 15.81286,-22.362574 0,-15.157895 -10.8538,-22.923977 -25.16959,-22.923977 l -27.60234,0 z m 17.59065,34.245615 0,-20.210527 2.05848,0 c 6.64327,0 14.59649,0.467836 14.59649,10.105263 0,9.637428 -7.95322,10.105264 -14.59649,10.105264 l -2.05848,0 z"/>
		<path d="m 912.42619,91.356724 c 0,22.549706 16.09357,40.046786 38.92398,40.046786 22.17544,0 38.83041,-17.49708 38.83041,-40.046786 0,-22.549708 -17.40351,-39.953217 -38.83041,-39.953217 -21.23977,0 -38.92398,17.403509 -38.92398,39.953217 z m 18.99415,0 c 0,-11.508772 6.36258,-23.017544 19.92983,-23.017544 13.66082,0 19.83625,11.508772 19.83625,23.017544 0,11.508776 -5.80116,23.017546 -19.83625,23.017546 -14.40936,0 -19.92983,-11.50877 -19.92983,-23.017546 z"/>
		<path d="m 1002.9423,52.807016 0,77.192984 17.5906,0 0,-28.63158 10.5731,0 c 15.0643,0 26.386,-8.888888 26.386,-24.795322 0,-16 -11.3217,-23.766082 -26.386,-23.766082 l -28.1637,0 z m 17.5906,34.526317 0,-20.491229 4.9591,0 c 6.9239,0 13.4736,2.339181 13.4736,10.292398 0,7.859649 -6.5497,10.198831 -13.4736,10.198831 l -4.9591,0 z"/>
	</g>
	<g>
		<path d="m 441.58041,151.40351 c -12.44445,0 -25.1696,9.16959 -25.1696,23.57895 0,8.04678 5.4269,15.25146 14.69006,19.83625 9.16959,4.5848 17.40351,7.11111 17.40351,12.72515 0,7.20468 -7.29824,7.57895 -11.1345,7.57895 -8.60819,0 -18.90059,-8.70176 -18.90059,-8.70176 l -8.79532,14.78363 c 0,0 10.94737,10.19883 29.00585,10.19883 15.06433,0 29.09942,-6.45614 29.09942,-24.88889 0,-10.10526 -9.4503,-17.40351 -18.05848,-21.05263 -8.79533,-3.74269 -16.09357,-6.83041 -16.09357,-11.13451 0,-4.21052 3.18129,-6.92397 9.16959,-6.92397 7.95322,0 15.62573,5.33333 15.62573,5.33333 l 7.11111,-14.03509 c 0,0 -9.91813,-7.29824 -23.95321,-7.29824 z"/>
		<path d="m 464.17397,152.80702 28.44445,42.5731 0,34.61988 17.59064,0 0,-34.61988 28.44445,-42.5731 -21.1462,0 -16.09357,24.70175 -16.09357,-24.70175 -21.1462,0 z"/>
		<path d="m 564.08187,182.09357 0.18714,0 30.69006,47.90643 17.59064,0 0,-77.19298 -17.59064,0 0,47.90643 -0.18714,0 -30.69006,-47.90643 -17.59064,0 0,77.19298 17.59064,0 0,-47.90643 z"/>
		<path d="m 628.79386,152.80702 0,77.19298 22.36257,0 c 21.23977,0 38.92398,-16.09357 38.92398,-38.64328 0,-22.45614 -17.77778,-38.5497 -38.92398,-38.5497 l -22.36257,0 z m 17.59064,61.47368 0,-45.75439 2.71345,0 c 13.09942,0 21.98831,10.0117 21.98831,22.92398 -0.0936,12.91228 -8.98246,22.83041 -21.98831,22.83041 l -2.71345,0 z"/>
		<path d="m 720.46345,152.80702 -17.59064,0 0,77.19298 17.59064,0 0,-77.19298 z"/>
		<path d="m 774.89912,214.09357 c -17.68421,0 -25.45029,-12.35088 -25.45029,-22.73685 0,-10.29239 7.76608,-22.64327 25.45029,-22.64327 8.98245,0 15.15789,4.77193 15.15789,4.77193 l 7.48538,-14.97076 c 0,0 -8.60818,-7.11111 -25.35672,-7.11111 -21.89474,0 -41.82456,17.96491 -41.82456,40.14035 0,22.08187 20.02339,39.85965 41.82456,39.85965 16.74854,0 25.35672,-7.11111 25.35672,-7.11111 l -7.48538,-14.97076 c 0,0 -6.17544,4.77193 -15.15789,4.77193 z"/>
		<path d="m 848.56873,152.80702 -16.2807,0 -31.1579,77.19298 18.90059,0 5.7076,-15.4386 29.38012,0 5.7076,15.4386 18.90058,0 -31.15789,-77.19298 z m 0.5614,46.31579 -17.40351,0 8.60819,-22.45614 0.18713,0 8.60819,22.45614 z"/>
		<path d="m 878.21199,168.24561 18.33918,0 0,61.75439 17.59065,0 0,-61.75439 18.33918,0 0,-15.43859 -54.26901,0 0,15.43859 z"/>
		<path d="m 987.97957,152.80702 -44.16374,0 0,77.19298 44.16374,0 0,-15.4386 -26.5731,0 0,-15.53216 25.4503,0 0,-15.4386 -25.4503,0 0,-15.34503 26.5731,0 0,-15.43859 z"/>
	</g>
	<g>
		<path d="m 241.37665,332.10526 -33.47369,0 0,57.89474 13.19299,0 0,-23.22807 18.73684,0 0,-11.57895 -18.73684,0 0,-11.50877 20.2807,0 0,-11.57895 z"/>
		<path d="m 252.65077,332.10526 0,57.89474 13.19298,0 0,-22.87719 17.68421,22.87719 16.77193,0 -19.92982,-23.92982 c 7.08772,-2.24562 11.85965,-8.07018 11.85965,-16.77193 0,-11.36842 -8.14035,-17.19299 -18.87719,-17.19299 l -20.70176,0 z m 13.19298,25.68421 0,-15.15789 1.54386,0 c 4.98246,0 10.94737,0.35088 10.94737,7.57895 0,7.22807 -5.96491,7.57894 -10.94737,7.57894 l -1.54386,0 z"/>
		<path d="m 341.07511,332.10526 -33.12281,0 0,57.89474 33.12281,0 0,-11.57895 -19.92982,0 0,-11.64912 19.08772,0 0,-11.57895 -19.08772,0 0,-11.50877 19.92982,0 0,-11.57895 z"/>
		<path d="m 386.78235,332.10526 -33.12281,0 0,57.89474 33.12281,0 0,-11.57895 -19.92983,0 0,-11.64912 19.08772,0 0,-11.57895 -19.08772,0 0,-11.50877 19.92983,0 0,-11.57895 z"/>
		<path d="m 447.22642,390 13.19298,0 -5.19298,-57.89474 -14.03509,0 -12.8421,33.40351 -12.84211,-33.40351 -14.03509,0 -5.19298,57.89474 13.19298,0 2.73685,-34.31579 0.35087,0 11.85965,33.96491 7.85965,0 11.85965,-33.96491 0.35088,0 L 447.22642,390 Z"/>
		<path d="m 500.10799,332.10526 -12.21053,0 L 464.52904,390 l 14.17544,0 4.2807,-11.57895 22.03509,0 4.2807,11.57895 14.17544,0 -23.36842,-57.89474 z m 0.42105,34.73685 -13.05263,0 6.45614,-16.84211 0.14035,0 6.45614,16.84211 z"/>
		<path d="m 543.8591,354.07018 0.14035,0 23.01754,35.92982 13.19299,0 0,-57.89474 -13.19299,0 0,35.92983 -0.14035,0 -23.01754,-35.92983 -13.19298,0 0,57.89474 13.19298,0 0,-35.92982 z"/>
		<path d="m 656.22203,390 14.59649,0 16.49123,-57.89474 -14.59649,0 -9.89474,39.7193 -0.35088,0 -10.52631,-39.7193 -9.96492,0 -10.52631,39.7193 -0.35088,0 -9.89474,-39.7193 -14.66666,0 16.49123,57.89474 14.66666,0 9.26316,-32.49123 L 656.22203,390 Z"/>
		<path d="m 708.66721,332.10526 -13.19299,0 0,57.89474 13.19299,0 0,-57.89474 z"/>
		<path d="m 735.32294,332.10526 -13.19299,0 0,57.89474 33.12281,0 0,-11.57895 -19.92982,0 0,-46.31579 z"/>
		<path d="m 779.93365,332.10526 -13.19298,0 0,57.89474 33.12281,0 0,-11.57895 -19.92983,0 0,-46.31579 z"/>
		<path d="m 832.68478,331.05263 c -9.33333,0 -18.87719,6.8772 -18.87719,17.68421 0,6.03509 4.07018,11.4386 11.01755,14.8772 6.87719,3.43859 13.05263,5.33333 13.05263,9.54385 0,5.40351 -5.47369,5.68422 -8.35088,5.68422 -6.45614,0 -14.17544,-6.52632 -14.17544,-6.52632 l -6.59649,11.08772 c 0,0 8.21053,7.64912 21.75439,7.64912 11.29824,0 21.82456,-4.8421 21.82456,-18.66666 0,-7.57895 -7.08772,-13.05264 -13.54386,-15.78948 -6.59649,-2.80702 -12.07018,-5.12281 -12.07018,-8.35088 0,-3.15789 2.38597,-5.19298 6.87719,-5.19298 5.96492,0 11.7193,4 11.7193,4 l 5.33334,-10.52631 c 0,0 -7.4386,-5.47369 -17.96492,-5.47369 z"/>
		<path d="m 916.30318,378.07018 c -13.26316,0 -19.08772,-9.26316 -19.08772,-17.05264 0,-7.71929 5.82456,-16.98245 19.08772,-16.98245 6.73684,0 11.36842,3.57895 11.36842,3.57895 l 5.61404,-11.22807 c 0,0 -6.45614,-5.33334 -19.01754,-5.33334 -16.42106,0 -31.36843,13.47369 -31.36843,30.10527 0,16.5614 15.01755,29.89473 31.36843,29.89473 12.5614,0 19.01754,-5.33333 19.01754,-5.33333 l -5.61404,-11.22807 c 0,0 -4.63158,3.57895 -11.36842,3.57895 z"/>
		<path d="m 943.40187,332.10526 0,57.89474 13.19298,0 0,-22.87719 17.68421,22.87719 16.77193,0 -19.92983,-23.92982 c 7.08772,-2.24562 11.85965,-8.07018 11.85965,-16.77193 0,-11.36842 -8.14035,-17.19299 -18.87719,-17.19299 l -20.70175,0 z m 13.19298,25.68421 0,-15.15789 1.54386,0 c 4.98245,0 10.94737,0.35088 10.94737,7.57895 0,7.22807 -5.96492,7.57894 -10.94737,7.57894 l -1.54386,0 z"/>
		<path d="m 996.10689,361.01754 c 0,16.91228 12.07021,30.03509 29.19301,30.03509 16.6315,0 29.1228,-13.12281 29.1228,-30.03509 0,-16.91228 -13.0527,-29.96491 -29.1228,-29.96491 -15.9299,0 -29.19301,13.05263 -29.19301,29.96491 z m 14.24561,0 c 0,-8.63157 4.7719,-17.26315 14.9474,-17.26315 10.2456,0 14.8772,8.63158 14.8772,17.26315 0,8.63158 -4.3509,17.26316 -14.8772,17.26316 -10.807,0 -14.9474,-8.63158 -14.9474,-17.26316 z"/>
		<path d="m 1098.7177,332.10526 -33.4737,0 0,57.89474 13.193,0 0,-23.22807 18.7368,0 0,-11.57895 -18.7368,0 0,-11.50877 20.2807,0 0,-11.57895 z"/>
		<path d="m 1102.9161,343.68421 13.7544,0 0,46.31579 13.193,0 0,-46.31579 13.7544,0 0,-11.57895 -40.7018,0 0,11.57895 z"/>
		<path d="m 1174.7023,331.05263 c -9.3333,0 -18.8772,6.8772 -18.8772,17.68421 0,6.03509 4.0702,11.4386 11.0176,14.8772 6.8771,3.43859 13.0526,5.33333 13.0526,9.54385 0,5.40351 -5.4737,5.68422 -8.3509,5.68422 -6.4561,0 -14.1754,-6.52632 -14.1754,-6.52632 l -6.5965,11.08772 c 0,0 8.2105,7.64912 21.7544,7.64912 11.2982,0 21.8245,-4.8421 21.8245,-18.66666 0,-7.57895 -7.0877,-13.05264 -13.5438,-15.78948 -6.5965,-2.80702 -12.0702,-5.12281 -12.0702,-8.35088 0,-3.15789 2.386,-5.19298 6.8772,-5.19298 5.9649,0 11.7193,4 11.7193,4 l 5.3333,-10.52631 c 0,0 -7.4386,-5.47369 -17.9649,-5.47369 z"/>
	</g>
</svg>

<?xml version="1.0" encoding="utf-8"?>
<svg xmlns="http://www.w3.org/2000/svg" xmlns:svg="http://www.w3.org/2000/svg" version="1.1" viewBox="0 0 1400 440">
	<title>The titlepage for the Standard Ebooks edition of The Pit-Prop Syndicate, by Freeman Wills Crofts</title>
	<g aria-label="THE PIT-PROP">
		<path d="m 341.10306,68.245613 h 18.33919 V 130 h 17.59064 V 68.245613 h 18.33918 V 52.807016 h -54.26901 z"/>
		<path d="M 424.29751,99.029239 H 449.1864 V 130 h 17.59064 V 52.807016 H 449.1864 V 83.590642 H 424.29751 V 52.807016 H 406.70687 V 130 h 17.59064 z"/>
		<path d="M 527.14254,52.807016 H 482.9788 V 130 h 44.16374 v -15.4386 h -26.5731 V 99.029239 h 25.4503 V 83.590642 h -25.4503 V 68.245613 h 26.5731 z"/>
		<path d="M 572.83991,52.807016 V 130 h 17.59065 v -28.63158 h 10.5731 c 15.06433,0 26.38596,-8.888888 26.38596,-24.795322 0,-16 -11.32163,-23.766082 -26.38596,-23.766082 z m 17.59065,34.526317 V 66.842104 h 4.95906 c 6.92398,0 13.47369,2.339181 13.47369,10.292398 0,7.859649 -6.54971,10.198831 -13.47369,10.198831 z"/>
		<path d="M 657.7478,52.807016 H 640.15716 V 130 h 17.59064 z"/>
		<path d="m 664.59724,68.245613 h 18.33918 V 130 h 17.59064 V 68.245613 h 18.33918 V 52.807016 h -54.269 z"/>
		<path d="m 730.20101,95.754385 v 14.315795 h 30.12866 V 95.754385 Z"/>
		<path d="M 776.50219,52.807016 V 130 h 17.59065 v -28.63158 h 10.5731 c 15.06432,0 26.38596,-8.888888 26.38596,-24.795322 0,-16 -11.32164,-23.766082 -26.38596,-23.766082 z m 17.59065,34.526317 V 66.842104 h 4.95906 c 6.92398,0 13.47368,2.339181 13.47368,10.292398 0,7.859649 -6.5497,10.198831 -13.47368,10.198831 z"/>
		<path d="M 843.81945,52.807016 V 130 H 861.4101 V 99.497075 L 884.98904,130 h 22.36258 l -26.5731,-31.906433 c 9.45029,-2.994152 15.81286,-10.760234 15.81286,-22.362574 0,-15.157895 -10.8538,-22.923977 -25.16959,-22.923977 z M 861.4101,87.052631 V 66.842104 h 2.05848 c 6.64327,0 14.59649,0.467836 14.59649,10.105263 0,9.637428 -7.95322,10.105264 -14.59649,10.105264 z"/>
		<path d="m 912.42619,91.356724 c 0,22.549706 16.09357,40.046786 38.92398,40.046786 22.17544,0 38.83041,-17.49708 38.83041,-40.046786 0,-22.549708 -17.40351,-39.953217 -38.83041,-39.953217 -21.23977,0 -38.92398,17.403509 -38.92398,39.953217 z m 18.99415,0 c 0,-11.508772 6.36258,-23.017544 19.92983,-23.017544 13.66082,0 19.83625,11.508772 19.83625,23.017544 0,11.508776 -5.80116,23.017546 -19.83625,23.017546 -14.40936,0 -19.92983,-11.50877 -19.92983,-23.017546 z"/>
		<path d="M 1002.9423,52.807016 V 130 h 17.5906 v -28.63158 h 10.5731 c 15.0643,0 26.386,-8.888888 26.386,-24.795322 0,-16 -11.3217,-23.766082 -26.386,-23.766082 z m 17.5906,34.526317 V 66.842104 h 4.9591 c 6.9239,0 13.4736,2.339181 13.4736,10.292398 0,7.859649 -6.5497,10.198831 -13.4736,10.198831 z"/>
	</g>
	<g aria-label="SYNDICATE">
		<path d="m 441.58041,151.40351 c -12.44445,0 -25.1696,9.16959 -25.1696,23.57895 0,8.04678 5.4269,15.25146 14.69006,19.83625 9.16959,4.5848 17.40351,7.11111 17.40351,12.72515 0,7.20468 -7.29824,7.57895 -11.1345,7.57895 -8.60819,0 -18.90059,-8.70176 -18.90059,-8.70176 l -8.79532,14.78363 c 0,0 10.94737,10.19883 29.00585,10.19883 15.06433,0 29.09942,-6.45614 29.09942,-24.88889 0,-10.10526 -9.4503,-17.40351 -18.05848,-21.05263 -8.79533,-3.74269 -16.09357,-6.83041 -16.09357,-11.13451 0,-4.21052 3.18129,-6.92397 9.16959,-6.92397 7.95322,0 15.62573,5.33333 15.62573,5.33333 l 7.11111,-14.03509 c 0,0 -9.91813,-7.29824 -23.95321,-7.29824 z"/>
		<path d="m 464.17397,152.80702 28.44445,42.5731 V 230 h 17.59064 v -34.61988 l 28.44445,-42.5731 h -21.1462 l -16.09357,24.70175 -16.09357,-24.70175 z"/>
		<path d="m 564.08187,182.09357 h 0.18714 L 594.95907,230 h 17.59064 v -77.19298 h -17.59064 v 47.90643 h -0.18714 L 564.08187,152.80702 H 546.49123 V 230 h 17.59064 z"/>
		<path d="M 628.79386,152.80702 V 230 h 22.36257 c 21.23977,0 38.92398,-16.09357 38.92398,-38.64328 0,-22.45614 -17.77778,-38.5497 -38.92398,-38.5497 z m 17.59064,61.47368 v -45.75439 h 2.71345 c 13.09942,0 21.98831,10.0117 21.98831,22.92398 -0.0936,12.91228 -8.98246,22.83041 -21.98831,22.83041 z"/>
		<path d="M 720.46345,152.80702 H 702.87281 V 230 h 17.59064 z"/>
		<path d="m 774.89912,214.09357 c -17.68421,0 -25.45029,-12.35088 -25.45029,-22.73685 0,-10.29239 7.76608,-22.64327 25.45029,-22.64327 8.98245,0 15.15789,4.77193 15.15789,4.77193 l 7.48538,-14.97076 c 0,0 -8.60818,-7.11111 -25.35672,-7.11111 -21.89474,0 -41.82456,17.96491 -41.82456,40.14035 0,22.08187 20.02339,39.85965 41.82456,39.85965 16.74854,0 25.35672,-7.11111 25.35672,-7.11111 l -7.48538,-14.97076 c 0,0 -6.17544,4.77193 -15.15789,4.77193 z"/>
		<path d="m 848.56873,152.80702 h -16.2807 L 801.13013,230 h 18.90059 l 5.7076,-15.4386 h 29.38012 L 860.82604,230 h 18.90058 z m 0.5614,46.31579 h -17.40351 l 8.60819,-22.45614 h 0.18713 z"/>
		<path d="m 878.21199,168.24561 h 18.33918 V 230 h 17.59065 V 168.24561 H 932.481 v -15.43859 h -54.26901 z"/>
		<path d="M 987.97957,152.80702 H 943.81583 V 230 h 44.16374 v -15.4386 h -26.5731 v -15.53216 h 25.4503 v -15.4386 h -25.4503 v -15.34503 h 26.5731 z"/>
	</g>
	<g aria-label="FREEMAN WILLS CROFTS">
		<path d="M 241.37665,332.10526 H 207.90296 V 390 h 13.19299 v -23.22807 h 18.73684 v -11.57895 h -18.73684 v -11.50877 h 20.2807 z"/>
		<path d="M 252.65077,332.10526 V 390 h 13.19298 V 367.12281 L 283.52796,390 h 16.77193 l -19.92982,-23.92982 c 7.08772,-2.24562 11.85965,-8.07018 11.85965,-16.77193 0,-11.36842 -8.14035,-17.19299 -18.87719,-17.19299 z m 13.19298,25.68421 v -15.15789 h 1.54386 c 4.98246,0 10.94737,0.35088 10.94737,7.57895 0,7.22807 -5.96491,7.57894 -10.94737,7.57894 z"/>
		<path d="M 341.07511,332.10526 H 307.9523 V 390 h 33.12281 v -11.57895 h -19.92982 v -11.64912 h 19.08772 v -11.57895 h -19.08772 v -11.50877 h 19.92982 z"/>
		<path d="M 386.78235,332.10526 H 353.65954 V 390 h 33.12281 v -11.57895 h -19.92983 v -11.64912 h 19.08772 v -11.57895 h -19.08772 v -11.50877 h 19.92983 z"/>
		<path d="m 447.22642,390 h 13.19298 l -5.19298,-57.89474 h -14.03509 l -12.8421,33.40351 -12.84211,-33.40351 H 401.47203 L 396.27905,390 h 13.19298 l 2.73685,-34.31579 h 0.35087 l 11.85965,33.96491 h 7.85965 l 11.85965,-33.96491 h 0.35088 z"/>
		<path d="M 500.10799,332.10526 H 487.89746 L 464.52904,390 h 14.17544 l 4.2807,-11.57895 h 22.03509 L 509.30097,390 h 14.17544 z m 0.42105,34.73685 H 487.47641 L 493.93255,350 h 0.14035 z"/>
		<path d="m 543.8591,354.07018 h 0.14035 L 567.01699,390 h 13.19299 v -57.89474 h -13.19299 v 35.92983 h -0.14035 L 543.8591,332.10526 H 530.66612 V 390 h 13.19298 z"/>
		<path d="m 656.22203,390 h 14.59649 l 16.49123,-57.89474 h -14.59649 l -9.89474,39.7193 h -0.35088 l -10.52631,-39.7193 h -9.96492 l -10.52631,39.7193 h -0.35088 l -9.89474,-39.7193 H 606.53782 L 623.02905,390 h 14.66666 l 9.26316,-32.49123 z"/>
		<path d="M 708.66721,332.10526 H 695.47422 V 390 h 13.19299 z"/>
		<path d="M 735.32294,332.10526 H 722.12995 V 390 h 33.12281 v -11.57895 h -19.92982 z"/>
		<path d="M 779.93365,332.10526 H 766.74067 V 390 h 33.12281 v -11.57895 h -19.92983 z"/>
		<path d="m 832.68478,331.05263 c -9.33333,0 -18.87719,6.8772 -18.87719,17.68421 0,6.03509 4.07018,11.4386 11.01755,14.8772 6.87719,3.43859 13.05263,5.33333 13.05263,9.54385 0,5.40351 -5.47369,5.68422 -8.35088,5.68422 -6.45614,0 -14.17544,-6.52632 -14.17544,-6.52632 l -6.59649,11.08772 c 0,0 8.21053,7.64912 21.75439,7.64912 11.29824,0 21.82456,-4.8421 21.82456,-18.66666 0,-7.57895 -7.08772,-13.05264 -13.54386,-15.78948 -6.59649,-2.80702 -12.07018,-5.12281 -12.07018,-8.35088 0,-3.15789 2.38597,-5.19298 6.87719,-5.19298 5.96492,0 11.7193,4 11.7193,4 l 5.33334,-10.52631 c 0,0 -7.4386,-5.47369 -17.96492,-5.47369 z"/>
		<path d="m 916.30318,378.07018 c -13.26316,0 -19.08772,-9.26316 -19.08772,-17.05264 0,-7.71929 5.82456,-16.98245 19.08772,-16.98245 6.73684,0 11.36842,3.57895 11.36842,3.57895 l 5.61404,-11.22807 c 0,0 -6.45614,-5.33334 -19.01754,-5.33334 -16.42106,0 -31.36843,13.47369 -31.36843,30.10527 0,16.5614 15.01755,29.89473 31.36843,29.89473 12.5614,0 19.01754,-5.33333 19.01754,-5.33333 l -5.61404,-11.22807 c 0,0 -4.63158,3.57895 -11.36842,3.57895 z"/>
		<path d="M 943.40187,332.10526 V 390 h 13.19298 V 367.12281 L 974.27906,390 h 16.77193 l -19.92983,-23.92982 c 7.08772,-2.24562 11.85965,-8.07018 11.85965,-16.77193 0,-11.36842 -8.14035,-17.19299 -18.87719,-17.19299 z m 13.19298,25.68421 v -15.15789 h 1.54386 c 4.98245,0 10.94737,0.35088 10.94737,7.57895 0,7.22807 -5.96492,7.57894 -10.94737,7.57894 z"/>
		<path d="m 996.10689,361.01754 c 0,16.91228 12.07021,30.03509 29.19301,30.03509 16.6315,0 29.1228,-13.12281 29.1228,-30.03509 0,-16.91228 -13.0527,-29.96491 -29.1228,-29.96491 -15.9299,0 -29.19301,13.05263 -29.19301,29.96491 z m 14.24561,0 c 0,-8.63157 4.7719,-17.26315 14.9474,-17.26315 10.2456,0 14.8772,8.63158 14.8772,17.26315 0,8.63158 -4.3509,17.26316 -14.8772,17.26316 -10.807,0 -14.9474,-8.63158 -14.9474,-17.26316 z"/>
		<path d="M 1098.7177,332.10526 H 1065.244 V 390 h 13.193 v -23.22807 h 18.7368 v -11.57895 h -18.7368 v -11.50877 h 20.2807 z"/>
		<path d="m 1102.9161,343.68421 h 13.7544 V 390 h 13.193 v -46.31579 h 13.7544 v -11.57895 h -40.7018 z"/>
		<path d="m 1174.7023,331.05263 c -9.3333,0 -18.8772,6.8772 -18.8772,17.68421 0,6.03509 4.0702,11.4386 11.0176,14.8772 6.8771,3.43859 13.0526,5.33333 13.0526,9.54385 0,5.40351 -5.4737,5.68422 -8.3509,5.68422 -6.4561,0 -14.1754,-6.52632 -14.1754,-6.52632 l -6.5965,11.08772 c 0,0 8.2105,7.64912 21.7544,7.64912 11.2982,0 21.8245,-4.8421 21.8245,-18.66666 0,-7.57895 -7.0877,-13.05264 -13.5438,-15.78948 -6.5965,-2.80702 -12.0702,-5.12281 -12.0702,-8.35088 0,-3.15789 2.386,-5.19298 6.8772,-5.19298 5.9649,0 11.7193,4 11.7193,4 l 5.3333,-10.52631 c 0,0 -7.4386,-5.47369 -17.9649,-5.47369 z"/>
	</g>
</svg>
